application/views/svg/logo.svg

<svg viewBox="0 0 356 213" fill="none" xmlns="http://www.w3.org/2000/svg">
<path d="M19.7126 134.965H43.6772C56.2857 134.965 65.6377 142.062 65.6377 154.921C65.6377 167.53 56.2857 175.546 43.0092 175.546H31.8202V194.25H19.7126V134.965ZM31.8202 164.44H43.6772C49.3552 164.44 53.5302 161.184 53.5302 155.255C53.5302 149.327 49.3552 145.987 43.6772 145.987H31.8202V164.44Z" fill="black"/>
<path d="M116.941 194.25H102.162L82.0382 169.033C82.7062 172.707 82.7062 180.389 82.7062 194.25H70.5987V134.965H94.8972C107.84 134.965 115.856 141.645 115.856 153.251C115.856 166.444 105.335 171.454 97.4857 171.705C100.659 175.045 105.836 181.224 116.941 194.25ZM103.748 154.337C103.748 149.243 100.325 145.903 94.0622 145.903H82.7062V163.021H94.0622C100.325 163.021 103.748 159.597 103.748 154.337Z" fill="black"/>
<path d="M148.23 195.085C130.695 195.085 117.92 182.226 117.92 164.607C117.92 146.989 130.695 134.13 148.23 134.13C165.765 134.13 178.541 146.989 178.541 164.607C178.541 182.226 165.765 195.085 148.23 195.085ZM148.23 183.729C159.002 183.729 166.433 175.128 166.433 164.607C166.433 154.086 159.002 145.486 148.23 145.486C137.542 145.486 130.027 154.086 130.027 164.607C130.027 175.128 137.542 183.729 148.23 183.729Z" fill="black"/>
<path d="M176.42 189.741L180.261 179.721C182.85 181.725 185.355 183.061 188.11 183.144C192.619 183.144 195.542 180.639 195.542 172.623V134.965H207.649V173.291C207.649 187.987 199.383 195.085 189.279 195.085C182.265 195.085 178.007 191.494 176.42 189.741Z" fill="black"/>
<path d="M252.121 134.965V145.903H226.069V159.013H247.528V169.701H226.069V183.311H252.121V194.25H213.961V134.965H252.121Z" fill="black"/>
<path d="M284.24 195.085C267.707 195.085 254.514 181.892 254.514 164.607C254.514 147.323 267.707 134.13 284.24 134.13C293.592 134.13 299.354 137.386 301.525 139.056V150.83C299.938 149.076 294.594 145.152 285.743 145.152C275.306 145.152 266.622 153.168 266.622 164.607C266.622 176.047 275.306 184.063 285.743 184.063C294.594 184.063 299.938 180.055 301.525 178.385V190.158C299.354 191.828 293.592 195.085 284.24 195.085Z" fill="black"/>
<path d="M332.623 194.25H320.516V145.903H304.985V134.965H348.154V145.903H332.623V194.25Z" fill="black"/>
<path d="M47.1634 66.7501H35.0559V18.4036H19.5249V7.46509H62.6944V18.4036H47.1634V66.7501Z" fill="black"/>
<path d="M106.364 32.0141V7.46509H118.471V66.7501H106.364V42.7021H80.8126V66.7501H68.7051V7.46509H80.8126V32.0141H106.364Z" fill="black"/>
<path d="M163.6 7.46509V18.4036H137.548V31.5131H159.008V42.2011H137.548V55.8116H163.6V66.7501H125.441V7.46509H163.6Z" fill="black"/>
<path d="M126.902 72.5676L130.887 83.0354H104.211L108.986 95.5807H130.96L134.853 105.809H112.88L117.838 118.833H144.514L148.498 129.301H109.425L87.8284 72.5676H126.902Z" fill="black"/>
<path d="M191.639 129.301H153.848L132.252 72.5676H144.649L162.261 118.833H187.654L191.639 129.301Z" fill="black"/>
<path d="M217.716 129.301H196.768L175.172 72.5676H196.119C215.528 72.5676 231.73 85.033 237.783 100.934C243.836 116.836 237.124 129.301 217.716 129.301ZM191.554 83.0354L205.181 118.833H213.731C224.59 118.833 229.948 112.92 225.386 100.934C220.823 88.9484 210.963 83.0354 200.104 83.0354H191.554Z" fill="black"/>
<path d="M271.611 72.5676L275.595 83.0354H248.919L253.695 95.5807H275.668L279.562 105.809H257.588L262.546 118.833H289.222L293.207 129.301H254.134L232.537 72.5676H271.611Z" fill="black"/>
<path d="M346.009 129.301H330.876L301.084 105.169C303.107 108.685 305.905 116.037 310.954 129.301H298.557L276.96 72.5676H301.841C315.093 72.5676 325.735 78.9601 329.963 90.0671C334.769 102.692 325.821 107.487 317.875 107.726C322.341 110.923 329.893 116.836 346.009 129.301ZM317.961 91.1059C316.105 86.2316 311.383 83.0354 304.971 83.0354H293.343L299.578 99.4162H311.206C317.619 99.4162 319.877 96.14 317.961 91.1059Z" fill="black"/>
</svg>

<svg viewBox="0 0 356 213" fill="none" xmlns="http://www.w3.org/2000/svg"><path d="M19.713 134.965h23.964c12.609 0 21.96 7.097 21.96 19.956 0 12.609-9.351 20.625-22.628 20.625H31.82v18.704H19.713v-59.285zM31.82 164.44h11.857c5.678 0 9.853-3.256 9.853-9.185 0-5.928-4.175-9.268-9.853-9.268H31.82v18.453zM116.941 194.25h-14.779l-20.124-25.217c.668 3.674.668 11.356.668 25.217H70.6v-59.285h24.298c12.943 0 20.959 6.68 20.959 18.286 0 13.193-10.521 18.203-18.37 18.454 3.173 3.34 8.35 9.519 19.455 22.545zm-13.193-39.913c0-5.094-3.423-8.434-9.686-8.434H82.706v17.118h11.356c6.263 0 9.686-3.424 9.686-8.684zM148.23 195.085c-17.535 0-30.31-12.859-30.31-30.478 0-17.618 12.775-30.477 30.31-30.477 17.535 0 30.311 12.859 30.311 30.477 0 17.619-12.776 30.478-30.311 30.478zm0-11.356c10.772 0 18.203-8.601 18.203-19.122 0-10.521-7.431-19.121-18.203-19.121-10.688 0-18.203 8.6-18.203 19.121 0 10.521 7.515 19.122 18.203 19.122zM176.42 189.741l3.841-10.02c2.589 2.004 5.094 3.34 7.849 3.423 4.509 0 7.432-2.505 7.432-10.521v-37.658h12.107v38.326c0 14.696-8.266 21.794-18.37 21.794-7.014 0-11.272-3.591-12.859-5.344zM252.121 134.965v10.938h-26.052v13.11h21.459v10.688h-21.459v13.61h26.052v10.939h-38.16v-59.285h38.16zM284.24 195.085c-16.533 0-29.726-13.193-29.726-30.478 0-17.284 13.193-30.477 29.726-30.477 9.352 0 15.114 3.256 17.285 4.926v11.774c-1.587-1.754-6.931-5.678-15.782-5.678-10.437 0-19.121 8.016-19.121 19.455 0 11.44 8.684 19.456 19.121 19.456 8.851 0 14.195-4.008 15.782-5.678v11.773c-2.171 1.67-7.933 4.927-17.285 4.927zM332.623 194.25h-12.107v-48.347h-15.531v-10.938h43.169v10.938h-15.531v48.347zM47.163 66.75H35.056V18.404H19.525V7.465h43.17v10.939H47.162V66.75zM106.364 32.014V7.465h12.107V66.75h-12.107V42.702H80.813V66.75H68.705V7.465h12.108v24.55h25.551zM163.6 7.465v10.939h-26.052v13.11h21.46V42.2h-21.46v13.61H163.6v10.94h-38.159V7.464H163.6zM126.902 72.568l3.985 10.467h-26.676l4.775 12.546h21.974l3.893 10.228H112.88l4.958 13.024h26.676l3.984 10.468h-39.073L87.828 72.568h39.074zM191.639 129.301h-37.791l-21.596-56.733h12.397l17.612 46.265h25.393l3.985 10.468zM217.716 129.301h-20.948l-21.596-56.733h20.947c19.409 0 35.611 12.465 41.664 28.366 6.053 15.902-.659 28.367-20.067 28.367zm-26.162-46.266l13.627 35.798h8.55c10.859 0 16.217-5.913 11.655-17.899-4.563-11.986-14.423-17.899-25.282-17.899h-8.55zM271.611 72.568l3.984 10.467h-26.676l4.776 12.546h21.973l3.894 10.228h-21.974l4.958 13.024h26.676l3.985 10.468h-39.073l-21.597-56.733h39.074zM346.009 129.301h-15.133l-29.792-24.132c2.023 3.516 4.821 10.868 9.87 24.132h-12.397L276.96 72.568h24.881c13.252 0 23.894 6.392 28.122 17.5 4.806 12.624-4.142 17.419-12.088 17.658 4.466 3.197 12.018 9.11 28.134 21.575zm-28.048-38.195c-1.856-4.874-6.578-8.07-12.99-8.07h-11.628l6.235 16.38h11.628c6.413 0 8.671-3.276 6.755-8.31z" fill="#000"/></svg>
